X:1
T:[ID 6v-8a (= 6-96a) ]
T:[ID 6v-8a (= 6-96a) ]
T:Bezeichnung standardisiert: Dessauer Marsch; Desauer March
T:Urheber unbekannt Datum in der hier transkribierten schriftlichen Quelle: 1792
C:Urheber unbekannt
C:Datum in der hier transkribierten schriftlichen Quelle: 1792
L:1/8
M:4/4
K:D
V:1 treble 
V:1
 F | dAFD dAFD | dcde fe d2 | fefg a2 gf | e2 ee e2 z :: e | efed cB A2 | edef g2 z e | fefgabag | %9
 f2 Te2 d2 z :| %10

